X: 11804
T: Ellen O'Leary's
R: jig
M: 6/8
K: Dmajor
AG|:FDD EFG|Adc A2G|FDD GEE|FDD EDE|
FDD EFG|Adc A2G|FDD GEE|1 FDD D2G:|2 FDD D2g||
|:fed edc|Adc d2e|fed edc|ABA A2g|
[1 fed edc|Adc A2G|FDD GEE|FDD D2g:|
[2 faf edc|Adc A2G|FDD GEE|EDD DAG||

